X:108
T:Blind Man's Ramble. JJo108, The
B:J.Johnson Choice Collection Vol 8 1758
Z:vmp.Simon Wilson 2013 www.village-music-project.org.uk
Z:Dance added by John Chambers 2017
T:Chips n'Shavins,aka. JJo108
M:C|
L:1/8
%Q:1/4=140
K:D
   B/c/ |\
dA FD G2(FE) | D>FAF GE- EB/c/ |\
dAFDG2(FE) | A>cdA FD-D :|\
|: F/G/ |\
A2AG/F/ GEDF | A>BAF GE- EF/G/ |
A2AG/F/ GEDF | A>cdA FD-D :|\
|: B/c/ |\
d>faf g2(fe) | d>faf ge- ef/g/ |\
afge f>dcA | B<GFE FD-D :|
%%begintext align
%% First Cu. lead thro' the 2d Cu. and the outside
%% below the 3d Cu. .| Cast up into the 2d Cu.
%% Place and foot it :| foot it contrary Corners
%% and turn :||. the other Corners the same :||:
%% Lead out on both Sides and turn .:||:.
%%endtext
